svg/default.svg

<svg viewBox="0 0 20 20" xmlns="http://www.w3.org/2000/svg">
<rect width="100%" height="100%" fill="black"/>
<path d="M3.87808 10.1069L6.25501 11.7126C6.33425 11.7696 6.40847 11.8332 6.47686 11.9028C6.54902 11.972 6.59081 12.0669 6.59306 12.1669V13.0648C6.59379 13.0942 6.58855 13.1233 6.57765 13.1506C6.56676 13.1778 6.55045 13.2026 6.5297 13.2233C6.50895 13.2441 6.48421 13.2604 6.45696 13.2713C6.42972 13.2822 6.40055 13.2874 6.37122 13.2867H6.32368C6.29977 13.2808 6.2767 13.2719 6.25501 13.2603L2.55756 10.7671C2.47383 10.7161 2.39742 10.6539 2.33043 10.5823C2.27192 10.5072 2.24365 10.413 2.2512 10.3182V9.88503C2.24365 9.79018 2.27192 9.69595 2.33043 9.62092C2.39742 9.5493 2.47383 9.4871 2.55756 9.43605L6.25501 6.94291C6.2767 6.93126 6.29977 6.92239 6.32368 6.9165H6.37122C6.40055 6.91578 6.42972 6.92102 6.45696 6.93191C6.48421 6.94281 6.50895 6.95912 6.5297 6.97987C6.55045 7.00061 6.56676 7.02536 6.57765 7.0526C6.58855 7.07985 6.59379 7.10902 6.59306 7.13835V8.0363C6.59081 8.13625 6.54902 8.23122 6.47686 8.30041C6.40847 8.37 6.33425 8.43362 6.25501 8.49056L3.87808 10.1069ZM11.0591 5.81783C11.0968 5.73571 11.1506 5.66205 11.2175 5.60127C11.3029 5.52964 11.4126 5.4937 11.5239 5.50091H12.3162C12.3776 5.50159 12.4363 5.5263 12.4798 5.56974C12.5232 5.61318 12.5479 5.67189 12.5486 5.73332C12.5475 5.76605 12.5403 5.79829 12.5275 5.8284L8.94623 14.3748C8.91106 14.4541 8.86083 14.5259 8.79833 14.5861C8.75521 14.6239 8.70496 14.6527 8.65053 14.6709C8.59611 14.689 8.53861 14.6961 8.4814 14.6917H7.72343C7.6929 14.692 7.66263 14.6861 7.63448 14.6743C7.60632 14.6624 7.58087 14.645 7.55968 14.623C7.53795 14.6017 7.52068 14.5762 7.50889 14.5481C7.4971 14.52 7.49103 14.4898 7.49102 14.4593C7.4921 14.4266 7.49927 14.3943 7.51214 14.3642L11.0591 5.81783ZM13.745 8.50905C13.6658 8.4521 13.5915 8.38849 13.5231 8.31889C13.4869 8.285 13.458 8.24413 13.438 8.19874C13.418 8.15335 13.4075 8.10438 13.4069 8.05479V7.15684C13.4062 7.12751 13.4115 7.09833 13.4223 7.07109C13.4332 7.04385 13.4496 7.0191 13.4703 6.99835C13.491 6.97761 13.5158 6.96129 13.543 6.9504C13.5703 6.93951 13.5995 6.93427 13.6288 6.93499H13.6763C13.7001 6.94131 13.7231 6.95016 13.745 6.9614L17.4424 9.45454C17.5262 9.50559 17.6026 9.56779 17.6696 9.63941C17.7281 9.71443 17.7564 9.80867 17.7488 9.90351V10.3472C17.7564 10.4421 17.7281 10.5363 17.6696 10.6113C17.6026 10.6829 17.5262 10.7451 17.4424 10.7962L13.745 13.2629C13.7231 13.2741 13.7001 13.283 13.6763 13.2893H13.6288C13.5995 13.29 13.5703 13.2848 13.543 13.2739C13.5158 13.263 13.491 13.2467 13.4703 13.226C13.4496 13.2052 13.4332 13.1805 13.4223 13.1532C13.4115 13.126 13.4062 13.0968 13.4069 13.0675V12.1695C13.4075 12.1199 13.418 12.071 13.438 12.0256C13.458 11.9802 13.4869 11.9393 13.5231 11.9054C13.5915 11.8358 13.6658 11.7722 13.745 11.7153L16.1219 10.1095L13.745 8.50905Z" fill="white"/>
</svg>

<svg xmlns="http://www.w3.org/2000/svg" viewBox="0 0 20 20">
  <rect width="100%" height="100%"/>
  <path fill="#fff" d="m3.88 10.1 2.38 1.61c.07.06.15.12.22.2.07.06.11.16.11.26v.9a.22.22 0 0 1-.22.22h-.05a.3.3 0 0 1-.06-.03l-3.7-2.5a1.08 1.08 0 0 1-.23-.18.38.38 0 0 1-.08-.26v-.43c0-.1.02-.2.08-.27.07-.07.14-.13.23-.18l3.7-2.5a.3.3 0 0 1 .06-.02h.05a.22.22 0 0 1 .22.22v.9c0 .1-.04.2-.11.26l-.22.2-2.38 1.6Zm7.18-4.28c.04-.08.1-.16.16-.22.08-.07.2-.1.3-.1h.8a.24.24 0 0 1 .23.23l-.02.1-3.58 8.54a.67.67 0 0 1-.15.22.43.43 0 0 1-.32.1h-.76a.22.22 0 0 1-.16-.07.23.23 0 0 1-.05-.26l3.55-8.54Zm2.68 2.69a1.71 1.71 0 0 1-.22-.2.37.37 0 0 1-.11-.26v-.9a.22.22 0 0 1 .13-.2.22.22 0 0 1 .09-.02h.05l.06.03 3.7 2.5c.09.05.16.1.23.18.06.07.09.17.08.26v.45c0 .1-.02.19-.08.26-.07.07-.14.14-.23.19l-3.7 2.46a.34.34 0 0 1-.06.03h-.05a.22.22 0 0 1-.22-.22v-.9a.37.37 0 0 1 .11-.26l.22-.2 2.38-1.6-2.38-1.6Z"/>
</svg>
